X: 13
T:Mississippi Sawyer
M:4/4
L:1/8
C:
S:AABB form
R:Key of D
K:D
||:A2AAA2AA|A2AAB2A2|G2GGG2GG|G2G2A2G2|F2FFF2FF|F2F2G2F2|E2C2A,2C2|D8:||
D2F2D2F2|D2F2A2A2|C2E2C2E2|C2E2A2A2|D2F2D2F2|D2F2A2A2|G2E2C2E2|D8:||
